src/distro-icons/android.svg

<svg width="512" height="512" viewBox="0 0 512 512" fill="none" xmlns="http://www.w3.org/2000/svg">
<circle cx="256" cy="256" r="256" fill="white"/>
<path d="M343.543 201.953C340.414 201.954 337.354 201.026 334.751 199.288C332.148 197.55 330.12 195.078 328.921 192.187C327.723 189.296 327.409 186.114 328.019 183.044C328.629 179.974 330.136 177.154 332.349 174.941C334.561 172.727 337.381 171.22 340.45 170.608C343.52 169.997 346.702 170.31 349.594 171.507C352.485 172.704 354.957 174.732 356.697 177.334C358.436 179.936 359.365 182.996 359.365 186.125C359.36 190.321 357.692 194.343 354.726 197.31C351.76 200.277 347.739 201.947 343.543 201.953V201.953ZM168.645 201.953C165.515 201.954 162.456 201.026 159.853 199.288C157.25 197.55 155.221 195.078 154.023 192.187C152.825 189.296 152.511 186.114 153.121 183.044C153.731 179.974 155.237 177.154 157.45 174.941C159.663 172.727 162.482 171.22 165.552 170.608C168.622 169.997 171.803 170.31 174.695 171.507C177.587 172.704 180.059 174.732 181.798 177.334C183.538 179.936 184.466 182.996 184.467 186.125C184.463 190.321 182.795 194.344 179.829 197.311C176.863 200.278 172.841 201.948 168.645 201.953V201.953ZM349.218 106.638L380.841 51.867C381.273 51.1189 381.554 50.2929 381.667 49.4362C381.781 48.5795 381.724 47.7089 381.501 46.8741C381.278 46.0392 380.892 45.2565 380.367 44.5707C379.841 43.8848 379.185 43.3092 378.437 42.8767C377.689 42.4442 376.863 42.1632 376.006 42.05C375.15 41.9367 374.279 41.9932 373.444 42.2164C372.609 42.4396 371.827 42.825 371.141 43.3507C370.455 43.8763 369.879 44.5319 369.447 45.2801L337.425 100.743C312.938 89.5667 285.436 83.3436 256.091 83.3436C226.747 83.3436 199.248 89.5757 174.761 100.743L142.742 45.2801C142.31 44.5317 141.735 43.8758 141.049 43.3498C140.364 42.8237 139.581 42.4378 138.747 42.214C137.912 41.9903 137.042 41.9331 136.185 42.0458C135.329 42.1585 134.503 42.4388 133.754 42.8707C133.006 43.3026 132.35 43.8777 131.824 44.5631C131.298 45.2485 130.912 46.0308 130.688 46.8654C130.465 47.6999 130.407 48.5704 130.52 49.427C130.633 50.2837 130.913 51.1097 131.345 51.858L162.971 106.638C108.668 136.173 71.5257 191.147 66.0928 256.098H446.096C440.657 191.147 403.518 136.173 349.218 106.638" fill="#3DDC84"/>
</svg>

<svg width="512" height="512" fill="none" xmlns="http://www.w3.org/2000/svg">
<circle cx="256" cy="256" r="256" fill="#fff"/>
<path d="M343.543 201.953a15.826 15.826 0 0 1-15.524-18.909 15.826 15.826 0 0 1 28.678-5.71 15.823 15.823 0 0 1 2.668 8.791 15.846 15.846 0 0 1-15.822 15.828Zm-174.898 0a15.824 15.824 0 1 1 6.05-30.446 15.82 15.82 0 0 1 9.772 14.618 15.843 15.843 0 0 1-15.822 15.828Zm180.573-95.315 31.623-54.771a6.583 6.583 0 0 0-4.835-9.817 6.58 6.58 0 0 0-6.559 3.23l-32.022 55.463c-24.487-11.176-51.989-17.4-81.334-17.4-29.344 0-56.843 6.233-81.33 17.4L142.742 45.28a6.572 6.572 0 0 0-3.995-3.066 6.581 6.581 0 0 0-8.227 7.213 6.58 6.58 0 0 0 .825 2.431l31.626 54.78c-54.303 29.535-91.445 84.509-96.878 149.46h380.003c-5.439-64.951-42.578-119.925-96.878-149.46" fill="#3DDC84"/>
</svg>
